X: 40
T: Szczęśliwy, który ludzi upadłych ratuje,
C: Mikołaj Gomółka
%%abc-version 2.0
%%abcx-abcm2ps-target-version 5.9.1 (29 Sep 2008)
%%abc-creator hum2abc beta
%%abcx-conversion-date 2021/10/04 07:59:09
%%abc-edited-by Anna Matuszewska
%%abcx-initial-encoding-date 2020-02-08
%%humdrum-veritas 3238294440
%%humdrum-veritas-data 4253160991
%%linebreak <none>
%%barnumbers 0
L: 1/4
M: 4/2
N: Derived from pl-wn--sd-xvi-qu-273--041_gomolka-mikolaj--szczesliwy-ktory-ludzi-upadlych-ratuje.krn
%%staves [1 2 3 4]
V: 1 clef=treble
V: 2
V: 3 clef=alto
V: 4
K: C
[V:1] G4G2G2 | 
[V:2] D4E2E2 | 
[V:3] B,4B,2C4 | 
[V:4] G,4D,2C,2 [|] 
[V:1] A4G2c2 | 
[V:2] F4CDEF | 
[V:3] D2E2E2 | 
[V:4] F,4E,2C,D, [|] 
[V:1] c2B2A4 | 
[V:2] G2DEF4 | 
[V:3] E2B,CD4 | 
[V:4] E,F,G,2D,3E, [|] 
[V:1] A2G4F2 | 
[V:2] F2D2D3C | 
[V:3] CB,B,A,/G,/A,4 | 
[V:4] F,2G,2D,4 [|] 
[V:1] G4 | 
[V:2] B,4 | 
[V:3] G,4 | 
[V:4] G,4 | 
[V:1] z2G2 [I:setbarnb 6]| 
[V:2] z2D2 | 
[V:3] z2B,2 | 
[V:4] z2G,2 [|] 
[V:1] G4A3B | 
[V:2] E4F3F | 
[V:3] C4C3D | 
[V:4] C,4F,3F, [|] 
[V:1] c2c2BABc | 
[V:2] G2G2G2D2 | 
[V:3] E2E2D2G3 | 
[V:4] C,D,E,F,G,F,G,A, [|] 
[V:1] d2c2c2BA | 
[V:2] D2G4F2 | 
[V:3] FE4DC | 
[V:4] B,2C2A,4 [|] 
[V:1] B2e2c3c | 
[V:2] G2G2A3A | 
[V:3] D2E2F2C2 | 
[V:4] G,2C,2F,3F, [|] 
[V:1] f2f2e4 | 
[V:2] A2A2A3G | 
[V:3] D2CB,CD2C | 
[V:4] D,E,F,G,A,4 [|] 
[V:1] d2f2e2d3 | 
[V:2] F2ABcBA2 | 
[V:3] D2D2G2F2 | 
[V:4] D,2D,2E,2F,2 [|] 
[V:1] cc4B2 | 
[V:2] G2F2G3F | 
[V:3] E2DCD4 | 
[V:4] G,2A,2G,4 [|] 
[V:1] B8 |]  
[V:2] E8 |]  
[V:3] C8 |]  
[V:4] C,8 |]  


